Yaru++/mimetypes/48/text-x-meson.svg

<svg height="48" viewBox="0 0 12.7 12.7" width="48" xmlns="http://www.w3.org/2000/svg" xmlns:xlink="http://www.w3.org/1999/xlink"><linearGradient id="a" gradientUnits="userSpaceOnUse" x1="6.350383" x2="6.350383" y1=".396869" y2="12.038536"><stop offset="0" stop-color="#fff"/><stop offset=".125" stop-color="#fff" stop-opacity=".098039"/><stop offset=".92500001" stop-color="#fff" stop-opacity=".098039"/><stop offset="1" stop-color="#fff" stop-opacity=".498039"/></linearGradient><linearGradient id="b" gradientUnits="userSpaceOnUse" x1="89.241051" x2="214.75359" y1="95.191139" y2="217.58846"><stop offset="0" stop-color="#62237c"/><stop offset="1" stop-color="#7839b7"/></linearGradient><linearGradient id="c" gradientTransform="matrix(0 -.02997233 .02997147 0 -3.039658 13.626036)" gradientUnits="userSpaceOnUse" x1="459.03448" x2="35.310345" y1="419.23337" y2="207.36522"><stop offset="0" stop-color="#f2f2f2"/><stop offset="1" stop-color="#f9f9f9"/></linearGradient><path d="m4.1624031.39687013c-.5881423-.0089588-1.0513696.0135413-1.4324701.0775147-.3811032.063972-.692957.1839645-.9213929.411861-.2284333.22789667-.3490013.53960997-.412377.92087397-.0633756.3812644-.0757475.845434-.0728636 1.4350545v3.2401124 3.2416626c-.00286.5887137.00955 1.0526487.072864 1.4335027.063376.381265.1839437.692978.412377.920875.2284359.227896.5402897.34789.9213929.411861.3811032.06397.844259.07752 1.4324701.07752h4.3759596c.5882111 0 1.0511257-.01352 1.4314387-.07752.3803122-.064.6912132-.184399.9188052-.412377.227594-.227978.347451-.53947.411345-.920359.06389-.380886.07752-.844114.07752-1.4335027v-3.2416626-3.175l-2.8391093-2.84375407z" opacity=".1"/><path d="m4.1625645.39687013c-2.334731 0-2.5859449.2398051-2.5745017 2.57925877v3.2415745 3.2415749c-.011456 2.3394527.2397707 2.5792577 2.5745017 2.5792577h4.375994c2.3347305 0 2.5745015-.239779 2.5745015-2.5792577v-3.2415749l-.000177-3.175-2.6458334-2.64583327z" fill="none" opacity=".2" stroke="#000" stroke-width=".529167"/><path d="m4.1625645.39687013c-2.334731 0-2.5859449.2398051-2.5745017 2.57925877v3.2415745 3.2415749c-.011456 2.3394527.2397707 2.5792577 2.5745017 2.5792577h4.375994c2.3347305 0 2.5745015-.239779 2.5745015-2.5792577v-3.2415749l-.000177-3.175-2.6458334-2.64583327z" fill="url(#c)"/><g enable-background="new" fill="url(#b)" transform="matrix(.05061362 0 0 .05061362 -1.325592 -.653715)"><path d="m152.49434 94.685592c-38.40827 21.685068-62.255083 62.315528-62.47369 106.448428 40.18306 21.90824 87.36803 21.16104 123.93394.23066.004-.10575.01-.21235.0194-.31766-.0461-43.89606-23.48006-84.43758-61.47915-106.361428zm20.67709 46.988558c5.69442 3.86962 4.84998 13.18614 3.93271 19.56534-1.16719 7.02706-7.90443 18.57968-16.65738 26.11862 1.13225 1.62339 1.79438 3.62252 1.78485 5.7554-5.424 2.74168-10.80612-.3514-17.31536-5.92557-6.5092-5.57423-13.52967-16.74215-15.85947-28.22112-2.06648.21882-4.18249-.24298-5.99742-1.3878.47404-6.43661 7.30553-10.25977 13.35994-12.51667 4.51182-1.68188 14.32334-2.53462 23.58136-1.24206 3.16529.44192 6.26589 1.13463 9.06786 2.1307.8575-1.80038 2.27795-3.31403 4.10291-4.27306z" fill="url(#b)"/><path d="m173.17143 141.67415c5.69442 3.86962 4.84998 13.18614 3.93271 19.56534-1.16719 7.02706-7.90443 18.57968-16.65738 26.11862 1.13225 1.62339 1.79438 3.62252 1.78485 5.7554-5.424 2.74168-10.80612-.3514-17.31536-5.92557-6.5092-5.57423-13.52967-16.74215-15.85947-28.22112-2.06648.21882-4.18249-.24298-5.99742-1.3878.47404-6.43661 7.30553-10.25977 13.35994-12.51667 4.51182-1.68188 14.32334-2.53462 23.58136-1.24206 3.16529.44192 6.26589 1.13463 9.06786 2.1307.8575-1.80038 2.27795-3.31403 4.10291-4.27306z" fill="#fff"/></g><path d="m1.5878829 6.2177034v3.2416629c-.011456 2.3394517.2397892 2.5791697 2.5745202 2.5791697h4.3759596c2.3347303 0 2.5745203-.239691 2.5745203-2.5791697v-3.2416629z" fill="#fff" opacity=".2"/><path d="m6.3503829.39687013v11.64166587h2.1879798c2.3347303 0 2.5745203-.239691 2.5745203-2.5791697v-3.2416629-3.175l-2.6458334-2.64583327z" fill="#fff" opacity=".1"/><path d="m4.1624031.39687013c-2.334731 0-2.5859635.239717-2.5745202 2.57917067v3.2416626 3.2416629c-.011456 2.3394517.2397892 2.5791697 2.5745202 2.5791697h4.3759596c2.3347303 0 2.5745203-.239691 2.5745203-2.5791697v-3.2416629-3.175h-.264584v3.175 3.2416629c0 .5803497-.01625 1.0241207-.07028 1.3461687-.05402.322051-.139877.509149-.264067.633556-.12419.124394-.310716.21051-.6320016.264583-.321289.05406-.7644346.07028-1.343589.07028h-4.3759583c-.5791544 0-1.0228501-.01619-1.3451391-.07028-.3222863-.054105-.5103204-.140097-.6351032-.264583-.1247801-.124495-.2105977-.311367-.2640647-.633037-.05347-.32167-.068472-.765549-.06563-1.3456547v-.000529-3.2421669-3.2421793-.0005292c-.0028309-.5801064.0121709-1.0239838.06563-1.3456544.0534696-.3216707.1392846-.5085498.2640647-.63303627.1247802-.1244864.3133355-.2104839.6356218-.2645833.3222863-.0540745.7654661-.0702675 1.3446205-.0702675h4.3046465v-.2645833z" fill="url(#a)" opacity=".4"/><path d="m11.112883 3.3072867v-.2645833l-2.6458334-2.64583327h-.2645834v1.11364547.04267.022918c0 1.506003.2016019 1.7382252 1.7110602 1.7308441z" opacity=".2"/><path d="m11.112883 3.0423647-2.6458334-2.64549517v.98132417.04267.022918c0 1.5060031.069406 1.6059637 1.5788634 1.5985826z" fill="#faf8f6"/></svg>

<?xml version="1.0" encoding="UTF-8" standalone="no"?>
<svg
   xmlns:dc="http://purl.org/dc/elements/1.1/"
   xmlns:cc="http://creativecommons.org/ns#"
   xmlns:rdf="http://www.w3.org/1999/02/22-rdf-syntax-ns#"
   xmlns:svg="http://www.w3.org/2000/svg"
   xmlns="http://www.w3.org/2000/svg"
   xmlns:xlink="http://www.w3.org/1999/xlink"
   xmlns:sodipodi="http://sodipodi.sourceforge.net/DTD/sodipodi-0.dtd"
   xmlns:inkscape="http://www.inkscape.org/namespaces/inkscape"
   height="48"
   viewBox="0 0 12.7 12.7"
   width="48"
   version="1.1"
   id="svg46"
   sodipodi:docname="text-x-meson.svg"
   inkscape:version="0.92.5 (2060ec1f9f, 2020-04-08)">
  <metadata
     id="metadata52">
    <rdf:RDF>
      <cc:Work
         rdf:about="">
        <dc:format>image/svg+xml</dc:format>
        <dc:type
           rdf:resource="http://purl.org/dc/dcmitype/StillImage" />
      </cc:Work>
    </rdf:RDF>
  </metadata>
  <defs
     id="defs50">
    <linearGradient
       gradientTransform="matrix(0.26458333,0,0,0.26458333,-84.666283,-16.007297)"
       inkscape:collect="always"
       xlink:href="#linearGradient927"
       id="linearGradient1004"
       x1="344"
       y1="62"
       x2="344"
       y2="106"
       gradientUnits="userSpaceOnUse" />
    <linearGradient
       inkscape:collect="always"
       id="linearGradient927">
      <stop
         style="stop-color:#ffffff;stop-opacity:1;"
         offset="0"
         id="stop923" />
      <stop
         id="stop933"
         offset="0.125"
         style="stop-color:#ffffff;stop-opacity:0.09803922" />
      <stop
         id="stop931"
         offset="0.92500001"
         style="stop-color:#ffffff;stop-opacity:0.09803922" />
      <stop
         style="stop-color:#ffffff;stop-opacity:0.49803922"
         offset="1"
         id="stop925" />
    </linearGradient>
    <linearGradient
       inkscape:collect="always"
       xlink:href="#linearGradient921"
       id="linearGradient979"
       x1="89.241051"
       y1="95.191139"
       x2="214.75359"
       y2="217.58846"
       gradientUnits="userSpaceOnUse" />
    <linearGradient
       id="linearGradient921"
       inkscape:collect="always">
      <stop
         id="stop917"
         offset="0"
         style="stop-color:#62237c;stop-opacity:1" />
      <stop
         id="stop919"
         offset="1"
         style="stop-color:#7839b7;stop-opacity:1" />
    </linearGradient>
    <linearGradient
       inkscape:collect="always"
       xlink:href="#linearGradient4338"
       id="linearGradient1024"
       gradientUnits="userSpaceOnUse"
       gradientTransform="matrix(0,-0.02997233,0.02997147,0,-3.0396584,13.626036)"
       x1="459.03448"
       y1="419.23337"
       x2="35.310345"
       y2="207.36522" />
    <linearGradient
       inkscape:collect="always"
       id="linearGradient4338">
      <stop
         style="stop-color:#f2f2f2;stop-opacity:1"
         offset="0"
         id="stop4340" />
      <stop
         style="stop-color:#f9f9f9;stop-opacity:1"
         offset="1"
         id="stop4342" />
    </linearGradient>
    <linearGradient
       inkscape:collect="always"
       xlink:href="#linearGradient921"
       id="linearGradient920"
       gradientUnits="userSpaceOnUse"
       x1="89.241051"
       y1="95.191139"
       x2="214.75359"
       y2="217.58846" />
  </defs>
  <sodipodi:namedview
     pagecolor="#ffffff"
     bordercolor="#666666"
     borderopacity="1"
     objecttolerance="10"
     gridtolerance="10"
     guidetolerance="10"
     inkscape:pageopacity="0"
     inkscape:pageshadow="2"
     inkscape:window-width="834"
     inkscape:window-height="480"
     id="namedview48"
     showgrid="false"
     inkscape:zoom="4.9166667"
     inkscape:cx="24"
     inkscape:cy="24"
     inkscape:window-x="0"
     inkscape:window-y="28"
     inkscape:window-maximized="0"
     inkscape:current-layer="svg46" />
  <linearGradient
     id="a"
     gradientUnits="userSpaceOnUse"
     x1="344"
     x2="344"
     y1="62"
     y2="106">
    <stop
       offset="0"
       stop-color="#fff"
       id="stop2" />
    <stop
       offset=".125"
       stop-color="#fff"
       stop-opacity=".098039"
       id="stop4" />
    <stop
       offset=".92500001"
       stop-color="#fff"
       stop-opacity=".098039"
       id="stop6" />
    <stop
       offset="1"
       stop-color="#fff"
       stop-opacity=".498039"
       id="stop8" />
  </linearGradient>
  <clipPath
     id="b">
    <path
       d="m335.73108 62c-8.82418 0-9.77365.90635-9.7304 9.74838v12.25162 12.25162c-.0433 8.84203.90622 9.74838 9.7304 9.74838h16.53919c8.82418 0 9.7304-.90625 9.7304-9.74838v-12.25162-12.25162c0-8.84213-.90622-9.74838-9.7304-9.74838z"
       id="path11" />
  </clipPath>
  <linearGradient
     id="c"
     gradientTransform="matrix(0 -.02997233 .02997147 0 -3.039659 297.92607)"
     gradientUnits="userSpaceOnUse"
     x1="459.03448"
     x2="35.310345"
     y1="419.23337"
     y2="207.36522">
    <stop
       offset="0"
       stop-color="#f2f2f2"
       id="stop14" />
    <stop
       offset="1"
       stop-color="#f9f9f9"
       id="stop16" />
  </linearGradient>
  <linearGradient
     id="d"
     gradientUnits="userSpaceOnUse"
     x1="89.241051"
     x2="214.75359"
     y1="95.191139"
     y2="217.58846">
    <stop
       offset="0"
       stop-color="#62237c"
       id="stop19" />
    <stop
       offset="1"
       stop-color="#7839b7"
       id="stop21" />
  </linearGradient>
  <path
     style="color:#000000;font-style:normal;font-variant:normal;font-weight:normal;font-stretch:normal;font-size:medium;line-height:normal;font-family:sans-serif;font-variant-ligatures:normal;font-variant-position:normal;font-variant-caps:normal;font-variant-numeric:normal;font-variant-alternates:normal;font-feature-settings:normal;text-indent:0;text-align:start;text-decoration:none;text-decoration-line:none;text-decoration-style:solid;text-decoration-color:#000000;letter-spacing:normal;word-spacing:normal;text-transform:none;writing-mode:lr-tb;direction:ltr;text-orientation:mixed;dominant-baseline:auto;baseline-shift:baseline;text-anchor:start;white-space:normal;shape-padding:0;clip-rule:nonzero;display:inline;overflow:visible;visibility:visible;opacity:0.1;isolation:auto;mix-blend-mode:normal;color-interpolation:sRGB;color-interpolation-filters:linearRGB;solid-color:#000000;solid-opacity:1;vector-effect:none;fill:#000000;fill-opacity:1;fill-rule:nonzero;stroke:none;stroke-width:0.52916664;stroke-linecap:butt;stroke-linejoin:miter;stroke-miterlimit:4;stroke-dasharray:none;stroke-dashoffset:0;stroke-opacity:1;marker:none;color-rendering:auto;image-rendering:auto;shape-rendering:auto;text-rendering:auto;enable-background:accumulate"
     d="M 4.1624031,0.39687013 C 3.5742608,0.38791133 3.1110335,0.41041143 2.729933,0.47438483 2.3488298,0.53835683 2.036976,0.65834933 1.8085401,0.88624583 1.5801068,1.1141425 1.4595388,1.4258558 1.3961631,1.8071198 1.3327875,2.1883842 1.3204156,2.6525538 1.3232995,3.2421743 v 3.2401124 3.2416626 c -0.00286,0.5887137 0.00955,1.0526487 0.072864,1.4335027 0.063376,0.381265 0.1839437,0.692978 0.412377,0.920875 0.2284359,0.227896 0.5402897,0.34789 0.9213929,0.411861 0.3811032,0.06397 0.844259,0.07752 1.4324701,0.07752 h 4.3759596 c 0.5882111,0 1.0511257,-0.01352 1.4314387,-0.07752 0.3803122,-0.064 0.6912132,-0.184399 0.9188052,-0.412377 0.227594,-0.227978 0.347451,-0.53947 0.411345,-0.920359 0.06389,-0.380886 0.07752,-0.844114 0.07752,-1.4335027 v -3.2416626 -3.175 L 8.5383627,0.46353263 Z"
     id="path1020"
     inkscape:connector-curvature="0"
     sodipodi:nodetypes="sccsccccccsscccscccs" />
  <path
     style="color:#000000;display:inline;overflow:visible;visibility:visible;opacity:0.2;fill:none;fill-opacity:1;fill-rule:nonzero;stroke:#000000;stroke-width:0.52916664;stroke-miterlimit:4;stroke-dasharray:none;stroke-opacity:1;marker:none;enable-background:accumulate"
     d="m 4.1625645,0.39687013 c -2.334731,0 -2.5859449,0.2398051 -2.5745017,2.57925877 v 3.2415745 3.2415749 c -0.011456,2.3394527 0.2397707,2.5792577 2.5745017,2.5792577 h 4.375994 c 2.3347305,0 2.5745015,-0.239779 2.5745015,-2.5792577 V 6.2177034 l -1.77e-4,-3.175 -2.6458334,-2.64583327 z"
     id="path958"
     inkscape:connector-curvature="0"
     sodipodi:nodetypes="scccssscccs" />
  <path
     style="color:#000000;display:inline;overflow:visible;visibility:visible;fill:url(#linearGradient1024);fill-opacity:1;fill-rule:nonzero;stroke:none;stroke-width:0.26458332;marker:none;enable-background:accumulate"
     d="m 4.1625645,0.39687013 c -2.334731,0 -2.5859449,0.2398051 -2.5745017,2.57925877 v 3.2415745 3.2415749 c -0.011456,2.3394527 0.2397707,2.5792577 2.5745017,2.5792577 h 4.375994 c 2.3347305,0 2.5745015,-0.239779 2.5745015,-2.5792577 V 6.2177034 l -1.77e-4,-3.175 -2.6458334,-2.64583327 z"
     id="path964"
     inkscape:connector-curvature="0"
     sodipodi:nodetypes="scccssscccs" />
  <g
     style="display:inline;fill:url(#linearGradient979);fill-opacity:1;enable-background:new"
     id="g966-3"
     transform="matrix(0.05061362,0,0,0.05061362,-1.3255924,-0.65371517)">
    <path
       sodipodi:nodetypes="cccccccccccccssccc"
       id="path817-6-2-9-7-9-93-9-8-1-6"
       d="M 152.49434,94.685592 C 114.08607,116.37066 90.239257,157.00112 90.02065,201.13402 c 40.18306,21.90824 87.36803,21.16104 123.93394,0.23066 0.004,-0.10575 0.01,-0.21235 0.0194,-0.31766 -0.0461,-43.89606 -23.48006,-84.43758 -61.47915,-106.361428 z m 20.67709,46.988558 c 5.69442,3.86962 4.84998,13.18614 3.93271,19.56534 -1.16719,7.02706 -7.90443,18.57968 -16.65738,26.11862 1.13225,1.62339 1.79438,3.62252 1.78485,5.7554 -5.424,2.74168 -10.80612,-0.3514 -17.31536,-5.92557 -6.5092,-5.57423 -13.52967,-16.74215 -15.85947,-28.22112 -2.06648,0.21882 -4.18249,-0.24298 -5.99742,-1.3878 0.47404,-6.43661 7.30553,-10.25977 13.35994,-12.51667 4.51182,-1.68188 14.32334,-2.53462 23.58136,-1.24206 3.16529,0.44192 6.26589,1.13463 9.06786,2.1307 0.8575,-1.80038 2.27795,-3.31403 4.10291,-4.27306 z"
       style="display:inline;fill:url(#linearGradient920);fill-opacity:1;stroke:none;stroke-width:3.32821822;stroke-miterlimit:4;stroke-dasharray:none;stroke-opacity:1;enable-background:new"
       inkscape:connector-curvature="0" />
    <path
       sodipodi:nodetypes="cccccccssccc"
       id="path817-6-2-9-7-9-93-9-8-1-3-7"
       d="m 173.17143,141.67415 c 5.69442,3.86962 4.84998,13.18614 3.93271,19.56534 -1.16719,7.02706 -7.90443,18.57968 -16.65738,26.11862 1.13225,1.62339 1.79438,3.62252 1.78485,5.7554 -5.424,2.74168 -10.80612,-0.3514 -17.31536,-5.92557 -6.5092,-5.57423 -13.52967,-16.74215 -15.85947,-28.22112 -2.06648,0.21882 -4.18249,-0.24298 -5.99742,-1.3878 0.47404,-6.43661 7.30553,-10.25977 13.35994,-12.51667 4.51182,-1.68188 14.32334,-2.53462 23.58136,-1.24206 3.16529,0.44192 6.26589,1.13463 9.06786,2.1307 0.8575,-1.80038 2.27795,-3.31403 4.10291,-4.27306 z"
       style="display:inline;fill:#ffffff;fill-opacity:1;stroke:none;stroke-width:3.32821822;stroke-miterlimit:4;stroke-dasharray:none;stroke-opacity:1;enable-background:new"
       inkscape:connector-curvature="0" />
  </g>
  <path
     style="color:#000000;display:inline;overflow:visible;visibility:visible;opacity:0.2;fill:#ffffff;fill-opacity:1;fill-rule:nonzero;stroke:none;stroke-width:0.26458332;marker:none;enable-background:accumulate"
     d="m 1.5878829,6.2177034 v 3.2416629 c -0.011456,2.3394517 0.2397892,2.5791697 2.5745202,2.5791697 h 4.3759596 c 2.3347303,0 2.5745203,-0.239691 2.5745203,-2.5791697 V 6.2177034 Z"
     id="path1006"
     inkscape:connector-curvature="0" />
  <path
     style="color:#000000;display:inline;overflow:visible;visibility:visible;opacity:0.1;fill:#ffffff;fill-opacity:1;fill-rule:nonzero;stroke:none;stroke-width:0.26458332;marker:none;enable-background:accumulate"
     d="M 6.3503829,0.39687013 V 12.038536 h 2.1879798 c 2.3347303,0 2.5745203,-0.239691 2.5745203,-2.5791697 v -3.2416629 -3.175 L 8.4670496,0.39687013 Z"
     id="path1013"
     inkscape:connector-curvature="0"
     sodipodi:nodetypes="ccsscccc" />
  <path
     style="color:#000000;font-style:normal;font-variant:normal;font-weight:normal;font-stretch:normal;font-size:medium;line-height:normal;font-family:sans-serif;font-variant-ligatures:normal;font-variant-position:normal;font-variant-caps:normal;font-variant-numeric:normal;font-variant-alternates:normal;font-feature-settings:normal;text-indent:0;text-align:start;text-decoration:none;text-decoration-line:none;text-decoration-style:solid;text-decoration-color:#000000;letter-spacing:normal;word-spacing:normal;text-transform:none;writing-mode:lr-tb;direction:ltr;text-orientation:mixed;dominant-baseline:auto;baseline-shift:baseline;text-anchor:start;white-space:normal;shape-padding:0;clip-rule:nonzero;display:inline;overflow:visible;visibility:visible;opacity:0.4;isolation:auto;mix-blend-mode:normal;color-interpolation:sRGB;color-interpolation-filters:linearRGB;solid-color:#000000;solid-opacity:1;vector-effect:none;fill:url(#linearGradient1004);fill-opacity:1;fill-rule:nonzero;stroke:none;stroke-width:0.52916664;stroke-linecap:butt;stroke-linejoin:miter;stroke-miterlimit:4;stroke-dasharray:none;stroke-dashoffset:0;stroke-opacity:1;marker:none;color-rendering:auto;image-rendering:auto;shape-rendering:auto;text-rendering:auto;enable-background:accumulate"
     clip-path="none"
     d="m 4.1624031,0.39687013 c -2.334731,0 -2.5859635,0.239717 -2.5745202,2.57917067 v 3.2416626 3.2416629 c -0.011456,2.3394517 0.2397892,2.5791697 2.5745202,2.5791697 h 4.3759596 c 2.3347303,0 2.5745203,-0.239691 2.5745203,-2.5791697 v -3.2416629 -3.175 h -0.264584 v 3.175 3.2416629 c 0,0.5803497 -0.01625,1.0241207 -0.07028,1.3461687 -0.05402,0.322051 -0.139877,0.509149 -0.264067,0.633556 -0.12419,0.124394 -0.310716,0.21051 -0.6320016,0.264583 -0.321289,0.05406 -0.7644346,0.07028 -1.343589,0.07028 H 4.1624031 c -0.5791544,0 -1.0228501,-0.01619 -1.3451391,-0.07028 C 2.4949777,11.649569 2.3069436,11.563577 2.1821608,11.439091 2.0573807,11.314596 1.9715631,11.127724 1.9180961,10.806054 1.8646261,10.484384 1.8496241,10.040505 1.8524661,9.4603993 V 9.4598703 6.2177034 2.9755241 2.9749949 C 1.8496352,2.3948885 1.864637,1.9510111 1.9180961,1.6293405 1.9715657,1.3076698 2.0573807,1.1207907 2.1821608,0.99630423 2.306941,0.87181783 2.4954963,0.78582033 2.8177826,0.73172093 3.1400689,0.67764643 3.5832487,0.66145343 4.1624031,0.66145343 h 4.3046465 v -0.2645833 z"
     id="path990"
     inkscape:connector-curvature="0" />
  <path
     inkscape:connector-curvature="0"
     style="color:#000000;display:inline;overflow:visible;visibility:visible;opacity:0.2;fill:#000000;fill-opacity:1;fill-rule:nonzero;stroke:none;stroke-width:0.06615189;marker:none;enable-background:accumulate"
     d="M 11.112883,3.3072867 V 3.0427034 L 8.4670496,0.39687013 H 8.2024662 v 1.11364547 0.04267 0.022918 c 0,1.506003 0.2016019,1.7382252 1.7110602,1.7308441 z"
     id="rect4158-0-3-62-2"
     sodipodi:nodetypes="ccccccscc" />
  <path
     inkscape:connector-curvature="0"
     style="color:#000000;display:inline;overflow:visible;visibility:visible;fill:#faf8f6;fill-opacity:1;fill-rule:nonzero;stroke:none;stroke-width:0.06615189;marker:none;enable-background:accumulate"
     d="M 11.112883,3.0423647 8.4670496,0.39686953 v 0.98132417 0.04267 0.022918 c 0,1.5060031 0.069406,1.6059637 1.5788634,1.5985826 z"
     id="rect4158-0-3-62"
     sodipodi:nodetypes="ccccscc" />
</svg>
